X:244
T:Polska efter Lapp Nils
T:(SvL Jämtland 244)
R:Polska
O:Mattmar, Jämtland
S:Munter Johan
S:Lapp-Nils
B:Svenska Låtar Jämtland
M:3/4
L:1/8
K:D
zb {/b}a2 fa|ga/g/ fe/d/ {/f}ec|db ba {fg}fe/f/|g2 {/f}!fermata!a4|
zb {/b}a2 fa|ga/g/ fe/d/ {/f}ec|db ba {fg}fe/f/|g2 !fermata![fA]4:|
|:zg {ga}g>f df|ed (cd) ec|d(e/f/) g(e/g/) f(e/d/)|d<c A4|
zg {ga}g>f df|ed (cd) ec|de/f/ ge/g/ f(e/d/)|ec d2 z2:|

